Newaita-dark/actions/scalable/distribute-horizontal-center.svg

<?xml version="1.0" encoding="UTF-8"?>
<svg xmlns="http://www.w3.org/2000/svg" xmlns:xlink="http://www.w3.org/1999/xlink" width="512pt" height="512pt" viewBox="0 0 512 512" version="1.1">
<g id="surface1">
<path style=" stroke:none;fill-rule:evenodd;fill:rgb(14.901961%,77.64706%,85.490197%);fill-opacity:1;" d="M 282.242188 35.753906 C 278.171875 35.757812 274.871094 39.054688 274.871094 43.121094 L 274.871094 131.632812 C 274.871094 137.226562 280.863281 140.777344 285.777344 138.101562 L 337.558594 93.847656 C 343.089844 89.226562 343.089844 85.539062 337.558594 80.90625 L 285.777344 36.652344 C 284.691406 36.0625 283.476562 35.753906 282.242188 35.753906 Z M 282.242188 35.753906 "/>
<path style=" stroke:none;fill-rule:evenodd;fill:rgb(14.901961%,77.64706%,85.490197%);fill-opacity:1;" d="M 225.808594 35.753906 C 229.878906 35.757812 233.175781 39.054688 233.175781 43.121094 L 233.175781 131.632812 C 233.175781 137.226562 227.183594 140.777344 222.269531 138.101562 L 170.488281 93.847656 C 164.957031 89.226562 164.957031 85.539062 170.488281 80.90625 L 222.269531 36.652344 C 223.355469 36.0625 224.570312 35.753906 225.808594 35.753906 Z M 225.808594 35.753906 "/>
<path style=" stroke:none;fill-rule:nonzero;fill:rgb(74.117649%,74.117649%,74.117649%);fill-opacity:1;" d="M 74.089844 173.351562 C 56.5 173.351562 42.335938 187.511719 42.335938 205.101562 L 42.335938 310.945312 C 42.335938 328.539062 56.5 342.699219 74.089844 342.699219 L 179.933594 342.699219 C 197.523438 342.699219 211.6875 328.539062 211.6875 310.945312 L 211.6875 205.101562 C 211.6875 187.511719 197.523438 173.351562 179.933594 173.351562 Z M 95.257812 205.101562 L 158.765625 205.101562 C 170.492188 205.101562 179.933594 214.542969 179.933594 226.269531 L 179.933594 289.777344 C 179.933594 301.503906 170.492188 310.945312 158.765625 310.945312 L 95.257812 310.945312 C 83.53125 310.945312 74.089844 301.503906 74.089844 289.777344 L 74.089844 226.269531 C 74.089844 214.542969 83.53125 205.101562 95.257812 205.101562 Z M 95.257812 205.101562 "/>
<path style=" stroke:none;fill-rule:nonzero;fill:rgb(74.117649%,74.117649%,74.117649%);fill-opacity:1;" d="M 127.011719 321.53125 C 138.703125 321.53125 148.179688 331.007812 148.179688 342.699219 L 148.179688 448.542969 C 148.179688 460.234375 138.703125 469.710938 127.011719 469.710938 C 115.320312 469.710938 105.84375 460.234375 105.84375 448.542969 L 105.84375 342.699219 C 105.84375 331.007812 115.320312 321.53125 127.011719 321.53125 Z M 127.011719 321.53125 "/>
<path style=" stroke:none;fill-rule:nonzero;fill:rgb(74.117649%,74.117649%,74.117649%);fill-opacity:1;" d="M 127.011719 88.675781 C 138.703125 88.675781 148.179688 98.152344 148.179688 109.84375 L 148.179688 173.351562 C 148.179688 185.039062 138.703125 194.519531 127.011719 194.519531 C 115.320312 194.519531 105.84375 185.039062 105.84375 173.351562 L 105.84375 109.84375 C 105.84375 98.152344 115.320312 88.675781 127.011719 88.675781 Z M 127.011719 88.675781 "/>
<path style=" stroke:none;fill-rule:nonzero;fill:rgb(74.117649%,74.117649%,74.117649%);fill-opacity:1;" d="M 328.113281 173.351562 C 310.523438 173.351562 296.363281 187.511719 296.363281 205.101562 L 296.363281 396.496094 C 296.363281 414.085938 310.523438 428.246094 328.113281 428.246094 L 433.957031 428.246094 C 451.550781 428.246094 465.710938 414.085938 465.710938 396.496094 L 465.710938 205.101562 C 465.710938 187.511719 451.550781 173.351562 433.957031 173.351562 Z M 349.285156 205.101562 L 412.789062 205.101562 C 424.515625 205.101562 433.957031 214.542969 433.957031 226.269531 L 433.957031 375.324219 C 433.957031 387.054688 424.515625 396.496094 412.789062 396.496094 L 349.285156 396.496094 C 337.554688 396.496094 328.113281 387.054688 328.113281 375.324219 L 328.113281 226.269531 C 328.113281 214.542969 337.554688 205.101562 349.285156 205.101562 Z M 349.285156 205.101562 "/>
<path style=" stroke:none;fill-rule:nonzero;fill:rgb(74.117649%,74.117649%,74.117649%);fill-opacity:1;" d="M 381.035156 406.207031 C 392.726562 406.207031 402.203125 415.683594 402.203125 427.375 L 402.203125 448.542969 C 402.203125 460.234375 392.726562 469.710938 381.035156 469.710938 C 369.34375 469.710938 359.867188 460.234375 359.867188 448.542969 L 359.867188 427.375 C 359.867188 415.683594 369.34375 406.207031 381.035156 406.207031 Z M 381.035156 406.207031 "/>
<path style=" stroke:none;fill-rule:nonzero;fill:rgb(74.117649%,74.117649%,74.117649%);fill-opacity:1;" d="M 381.035156 88.675781 C 392.726562 88.675781 402.203125 98.152344 402.203125 109.84375 L 402.203125 173.351562 C 402.203125 185.039062 392.726562 194.519531 381.035156 194.519531 C 369.34375 194.519531 359.867188 185.039062 359.867188 173.351562 L 359.867188 109.84375 C 359.867188 98.152344 369.34375 88.675781 381.035156 88.675781 Z M 381.035156 88.675781 "/>
</g>
</svg>

<svg xmlns="http://www.w3.org/2000/svg" width="512pt" height="512pt" viewBox="0 0 512 512"><path d="M282.242 35.754c-4.07.004-7.37 3.3-7.37 7.367v88.512c0 5.594 5.991 9.144 10.905 6.469l51.782-44.254c5.53-4.621 5.53-8.309 0-12.942l-51.782-44.254a7.405 7.405 0 0 0-3.535-.898zm0 0M225.809 35.754a7.37 7.37 0 0 1 7.367 7.367v88.512c0 5.594-5.992 9.144-10.906 6.469l-51.782-44.254c-5.531-4.621-5.531-8.309 0-12.942l51.782-44.254a7.41 7.41 0 0 1 3.539-.898zm0 0" fill-rule="evenodd" fill="#26c6da"/><path d="M74.09 173.352c-17.59 0-31.754 14.16-31.754 31.75v105.843c0 17.594 14.164 31.754 31.754 31.754h105.844c17.59 0 31.754-14.16 31.754-31.754V205.102c0-17.59-14.165-31.75-31.754-31.75zm21.168 31.75h63.508a21.122 21.122 0 0 1 21.168 21.168v63.507a21.122 21.122 0 0 1-21.168 21.168H95.258a21.122 21.122 0 0 1-21.168-21.168V226.27a21.122 21.122 0 0 1 21.168-21.168zm0 0" fill="#bdbdbd"/><path d="M127.012 321.531c11.691 0 21.168 9.477 21.168 21.168v105.844c0 11.691-9.477 21.168-21.168 21.168-11.692 0-21.168-9.477-21.168-21.168V342.699c0-11.691 9.476-21.168 21.168-21.168zm0 0M127.012 88.676c11.691 0 21.168 9.476 21.168 21.168v63.508c0 11.687-9.477 21.168-21.168 21.168-11.692 0-21.168-9.48-21.168-21.168v-63.508c0-11.692 9.476-21.168 21.168-21.168zm0 0M328.113 173.352c-17.59 0-31.75 14.16-31.75 31.75v191.394c0 17.59 14.16 31.75 31.75 31.75h105.844c17.594 0 31.754-14.16 31.754-31.75V205.102c0-17.59-14.16-31.75-31.754-31.75zm21.172 31.75h63.504a21.122 21.122 0 0 1 21.168 21.168v149.054a21.123 21.123 0 0 1-21.168 21.172h-63.504a21.124 21.124 0 0 1-21.172-21.172V226.27a21.123 21.123 0 0 1 21.172-21.168zm0 0" fill="#bdbdbd"/><path d="M381.035 406.207c11.692 0 21.168 9.477 21.168 21.168v21.168c0 11.691-9.476 21.168-21.168 21.168-11.691 0-21.168-9.477-21.168-21.168v-21.168c0-11.691 9.477-21.168 21.168-21.168zm0 0M381.035 88.676c11.692 0 21.168 9.476 21.168 21.168v63.508c0 11.687-9.476 21.168-21.168 21.168-11.691 0-21.168-9.48-21.168-21.168v-63.508c0-11.692 9.477-21.168 21.168-21.168zm0 0" fill="#bdbdbd"/></svg>
